X:1
T:26
T:26
T:Études enfantines op. 37
T:Henry Lemoine
C:Henry Lemoine
%%score { 1 | ( 2 3 ) }
L:1/8
Q:3/8=80
M:3/8
K:C
V:1 treble nm="Piano" snm="Pno."
V:2 bass 
V:3 bass 
V:1
!p!"^Mouvement au Valse" !1!G ||S"_legato" (!3!G/!4!A/!3!G/^F/!1!G/!5!e/ | !4!d/c/B/c/d/c/) | %3
 (!1!G/!4!A/G/^F/!1!G/=f/ | !4!e/d/^c/d/e/d/) | (!1!G/!4!A/G/^F/!1!G/!5!e/ | %6
"_cresc." !4!d/c/B/!1!c/!2!e/a/ | .g)!f! .[GB].[Gc] | ([G^c]d)!p! G | %9
 (!3!G/!4!A/!3!G/^F/!1!G/!5!e/ | !4!d/c/B/c/d/c/) | (!1!G/!4!A/G/^F/!1!G/=f/ | !4!e/d/^c/d/e/d/) | %13
 (!1!G/!4!A/G/^F/!1!G/!5!e/ |"_cresc." !4!d/c/B/!1!c/!2!e/a/ |!f! !^!g>fd/e/ | .c) z!fine! |] %17
!mf! .!3!c | (d/c/B/!1!c/!3!e/a/ | !2!^f/!3!g/.c').e | (!4!g2 =f | !>!^de).!1!c | %22
!<(! (!4!d/c/B/!1!c/!3!f/a/ | !2!^f/!1!g/!5!e'/!4!c'/g/!<)!e/ | !3!g2 f | .e) z .!3!e | %26
!p!"_cresc." (!4!f/e/^d/!1!e/b/!1!e/ | !4!f/e/^d/!1!e/!5!c'/!3!a/) |!f! .!2![e^g].[eg].[eg] | %29
!>(! (!>!a .e)!>)!!p! .e |"_cresc." (!4!e/d/^c/!1!d/a/!1!d/ | !4!e/d/^c/!1!d/!5!b/!3!g/) | %32
!f! .!2![d^f].[df].[df] | (!>![da] .g) !3!g |!p! (!4!a/g/^f/g/a/g/ | %35
"_poco a poco""_cresc." ^f/!1!e/!2!^d/!3!e/f/e/ | =d/!1!c/!2!B/!3!c/d/c/) | %37
 (B/A/c/!2!B/!4!d/!1!c/ | !3!e/^d/^f/e/!2!c/!1!A/) |!f! (A/G/^F/!1!G/!2!B/!5!e/ | .d) z (!>!^F | %41
 .G) z!p! G | (!4!A/G/^F/G/!5!d/!3!B/ | !>!A2 .G) | (!4!A/"_cresc."G/^F/G/!5!e/!3!c/ | %45
 !>!!1!A2 .!2!G) |!f! (!4!A/G/^F/G/!5!=f/!3!e/ |"_e rallentando""_dim." !2!^cd.!1!=c) | (!4!cB.A) | %49
!p! (!fermata!A2 G)!D.S.! || %50
V:2
 z || !3!!1![CE]3- | [CE]3 | [DF]3- | [DF]3 | !3!!1![CE]3- | [CE]3 | G, .[G,DF].[G,CF] | %8
 !^![G,DF]2 z | !3!!1![CE]3- | [CE]3 | [DF]3- | [DF]3 | !3!!1![CE]3- | [CE]3 | z .[G,B,F].[G,B,F] | %16
 .[CE] z |] z |[K:treble] z [FA][FA] | z [EG][EG] | z !3!!1![DG][DG] | z [EG][EG] | z [FA][FA] | %23
 z [EG][EG] | z !3!!1![DG][DG] | z [EG][EG] | !5!!3!!1![B,D^G]3 | !5!!3!!1![CEA]3 | %28
 .!4!!3!!1![DEB].[DEB].[DEB] | [CEA]2 z | !5!!3!!1![A,C^F]3 | !5!!3!!1![B,DG]3 | %32
 .!4!!3!!1![CDA].[CDA].[CDA] | [B,DG]2 z | !4!!2![B,^D]2 z | [CE]3- | [CE]3- | [CE] z z | z3 | %39
[K:bass] [D,G,B,]3 | z [D,A,C]((([D,A,C] | .[G,B,]))) z z | !5!!3!!1![G,B,F]3- | %43
 [G,B,F][G,B,F][G,B,F] | !5!!3!!1![G,CE]3- | [G,CE][G,CE][G,CE] | !5!!3!!1![G,B,F]3- | %47
 [G,B,F]!5!!4!!1![G,B,F]!5!!3!!1![G,CF] | !5!!2!!1![G,DF]2 [G,CF] | !fermata![G,B,F]3 || %50
V:3
 x || x2 G, | G,2 G, | x2 G, | G,2 G, | x2 G, | G,2 G,- | x3 | x3 | x2 G, | G,2 G, | x2 G, | %12
 G,2 G, | x2 G, | G,2 G, | x3 | x2 |] x |[K:treble] C3 | C3 | B,3 | !4!C3 | !5!C3 | C3 | B,3 | %25
 !4!C3 | x3 | x3 | x3 | x3 | x3 | x3 | x3 | x3 | x3 | x3 | x3 | x3 | x3 |[K:bass] x3 | x3 | x3 | %42
 x3 | x3 | x3 | x3 | x3 | x3 | x3 | x3 || %50

